{
  "type": "map",
  "version": "1.10",
  "tiledversion": "1.11.0",
  "orientation": "orthogonal",
  "renderorder": "right-down",
  "infinite": false,
  "width": 20,
  "height": 12,
  "tilewidth": 16,
  "tileheight": 16,
  "backgroundcolor": "#1a1a2e",
  "nextlayerid": 4,
  "nextobjectid": 4,
  "properties": [
    {"name": "title", "type": "string", "value": "Pond"}
  ],
  "tilesets": [
    {
      "firstgid": 1,
      "name": "tiles",
      "image": "tiles.png",
      "imagewidth": 64,
      "imageheight": 32,
      "tilewidth": 16,
      "tileheight": 16,
      "columns": 4,
      "tilecount": 8,
      "margin": 0,
      "spacing": 0,
      "tiles": [
        {"id": 2, "properties": [{"name": "solid", "type": "bool", "value": true}]},
        {"id": 4, "animation": [{"tileid": 4, "duration": 400}, {"tileid": 5, "duration": 400}]}
      ]
    }
  ],
  "layers": [
    {
      "id": 1,
      "name": "ground",
      "type": "tilelayer",
      "visible": true,
      "opacity": 1,
      "x": 0,
      "y": 0,
      "width": 20,
      "height": 12,
      "data": [
        3,3,3,3,3,3,3,3,3,3,3,3,3,3,3,3,3,3,3,3,
        3,1,1,1,1,1,1,1,1,1,1,1,1,1,1,1,1,1,1,3,
        3,1,2,2,1,1,1,1,1,1,1,1,1,1,1,1,2,1,1,3,
        3,1,2,1,1,1,1,8,8,8,8,8,8,1,1,1,1,1,1,3,
        3,1,1,1,1,1,1,8,5,5,5,5,8,1,1,1,1,1,1,3,
        3,1,1,1,1,1,1,8,5,5,5,5,8,1,1,2,2,1,1,3,
        3,1,1,1,1,1,1,8,5,5,5,5,8,1,1,2,1,1,1,3,
        3,1,1,1,1,1,1,8,5,5,5,5,8,1,1,1,1,1,1,3,
        3,1,1,1,1,1,1,8,8,8,8,8,8,1,1,1,1,1,1,3,
        3,1,1,2,1,1,1,1,1,1,1,1,1,1,1,1,1,1,1,3,
        3,1,1,1,1,1,1,1,1,1,1,1,1,1,1,1,1,1,1,3,
        3,3,3,3,3,3,3,3,3,3,3,3,3,3,3,3,3,3,3,3
      ]
    },
    {
      "id": 2,
      "name": "decor",
      "type": "tilelayer",
      "visible": true,
      "opacity": 1,
      "x": 0,
      "y": 0,
      "width": 20,
      "height": 12,
      "data": [
        0,0,0,0,0,0,0,0,0,0,0,0,0,0,0,0,0,0,0,0,
        0,0,0,0,4,0,2147483652,0,1073741828,0,3221225476,0,2684354564,0,1610612740,0,0,0,0,0,
        0,0,0,0,0,0,0,0,0,0,0,0,0,0,0,0,0,0,0,0,
        0,7,0,0,0,7,0,0,0,0,0,0,0,0,0,0,0,0,7,0,
        0,0,0,0,0,0,0,0,0,0,0,0,0,0,7,0,0,0,0,0,
        0,0,0,7,0,0,0,0,0,0,0,0,0,0,0,0,0,0,0,0,
        0,0,0,0,0,0,0,0,0,0,0,0,0,0,0,0,0,7,0,0,
        0,7,0,0,0,0,0,0,0,0,0,0,0,0,0,0,0,0,0,0,
        0,0,0,0,0,0,7,0,0,0,0,0,0,0,7,0,0,0,0,0,
        0,0,0,0,0,0,0,0,0,0,0,0,0,0,0,0,0,0,0,0,
        0,0,7,0,0,0,0,0,0,0,7,0,0,0,0,0,0,7,0,0,
        0,0,0,0,0,0,0,0,0,0,0,0,0,0,0,0,0,0,0,0
      ]
    },
    {
      "id": 3,
      "name": "objects",
      "type": "objectgroup",
      "visible": true,
      "opacity": 1,
      "x": 0,
      "y": 0,
      "draworder": "topdown",
      "objects": [
        {"id": 1, "name": "spawn", "class": "spawn", "point": true, "x": 40, "y": 152, "width": 0, "height": 0, "rotation": 0, "visible": true},
        {"id": 2, "name": "zone", "class": "trigger", "x": 232, "y": 136, "width": 0, "height": 0, "rotation": 0, "visible": true,
         "polygon": [{"x": 0, "y": 0}, {"x": 64, "y": 0}, {"x": 32, "y": 40}]},
        {"id": 3, "name": "door", "class": "door", "x": 48, "y": 32, "width": 32, "height": 16, "rotation": 0, "visible": true,
         "properties": [{"name": "locked", "type": "bool", "value": true}]}
      ]
    }
  ]
}
